src/components/Dashboard/Widget/icons/views-normal.svg

<?xml version="1.0" encoding="UTF-8"?>
<svg width="20px" height="20px" viewBox="0 0 20 20" version="1.1" xmlns="http://www.w3.org/2000/svg" xmlns:xlink="http://www.w3.org/1999/xlink">
    <defs>
        <path d="M10,2.72727273 C7.99454545,2.72727273 6.36363636,4.35909091 6.36363636,6.36363636 C6.36363636,8.36909091 7.99454545,10 10,10 C12.0054545,10 13.6363636,8.36909091 13.6363636,6.36363636 C13.6363636,4.35909091 12.0054545,2.72727273 10,2.72727273 Z M10,8.18181818 C8.99727273,8.18181818 8.18181818,7.36636364 8.18181818,6.36363636 C8.18181818,5.36181818 8.99727273,4.54545455 10,4.54545455 C11.0027273,4.54545455 11.8181818,5.36181818 11.8181818,6.36363636 C11.8181818,7.36636364 11.0027273,8.18181818 10,8.18181818 Z M19.8336364,5.84090909 C19.6663636,5.60181818 15.6563636,0 10,0 C4.34363636,0 0.333636364,5.60181818 0.166363636,5.84090909 C-0.0554545455,6.15454545 -0.0554545455,6.57363636 0.166363636,6.88727273 C0.333636364,7.12545455 4.34363636,12.7272727 10,12.7272727 C15.6563636,12.7272727 19.6663636,7.12545455 19.8336364,6.88727273 C20.0554545,6.57272727 20.0554545,6.15454545 19.8336364,5.84090909 Z M10,10.9090909 C6.21272727,10.9090909 3.13727273,7.65909091 2.06272727,6.36272727 C3.13454545,5.06636364 6.2,1.81818182 10,1.81818182 C13.7872727,1.81818182 16.8627273,5.06909091 17.9372727,6.36454545 C16.8654545,7.66181818 13.8,10.9090909 10,10.9090909 Z" id="path-views"></path>
    </defs>
    <g id="Symbols1" stroke="none" stroke-width="1" fill="none" fill-rule="evenodd">
        <g id="Icons/Views">
            <g id="views" transform="translate(0.000000, 4.000000)">
                <mask id="mask-22" fill="white">
                    <use xlink:href="#path-views"></use>
                </mask>
                <use id="Views" fill="#767676" fill-rule="nonzero" xlink:href="#path-views"></use>
                <g id="Tints/Grey-med" mask="url(#mask-22)" fill="#797979">
                    <g transform="translate(0.000000, -4.000000)" id="Rectangle-55">
                        <rect x="0" y="0" width="20" height="20"></rect>
                    </g>
                </g>
            </g>
        </g>
    </g>
</svg>

<svg xmlns="http://www.w3.org/2000/svg" xmlns:xlink="http://www.w3.org/1999/xlink" width="20" height="20" viewBox="0 0 20 20">
    <defs>
        <path id="a" d="M10 2.727a3.64 3.64 0 0 0-3.636 3.637A3.64 3.64 0 0 0 10 10a3.64 3.64 0 0 0 3.636-3.636A3.64 3.64 0 0 0 10 2.727zm0 5.455a1.82 1.82 0 0 1-1.818-1.818A1.82 1.82 0 0 1 10 4.545a1.82 1.82 0 0 1 1.818 1.819A1.82 1.82 0 0 1 10 8.182zm9.834-2.341C19.666 5.6 15.656 0 10 0S.334 5.602.166 5.84a.906.906 0 0 0 0 1.047c.168.238 4.178 5.84 9.834 5.84s9.666-5.602 9.834-5.84a.906.906 0 0 0 0-1.046zM10 10.909c-3.787 0-6.863-3.25-7.937-4.546C3.135 5.066 6.2 1.818 10 1.818c3.787 0 6.863 3.251 7.937 4.547C16.865 7.662 13.8 10.909 10 10.909z"/>
    </defs>
    <g fill="none" fill-rule="evenodd" transform="translate(0 4)">
        <mask id="b" fill="#fff">
            <use xlink:href="#a"/>
        </mask>
        <use fill="#767676" fill-rule="nonzero" xlink:href="#a"/>
        <g fill="#797979" mask="url(#b)">
            <path d="M0-4h20v20H0z"/>
        </g>
    </g>
</svg>
